X: 4537
T: Borthwick, The
R: reel
M: 4/4
K: Amajor
A3B ABcd|efga gedB|A2Be dEBG|ABcd cBAF|
EAAG ABcd|efga gedB|Aaaf gede|1 c2A2 A4:|2 c2A2 A2(3efg|
|:afge afge|afgf edBc|dBcA decB|ABcd cBAF|
EAAG ABcd|efga gedB|Aaaf gede|1 c2A2 A2(3efg:|2 c2A2 A4||

